X:1
T:My Love is in America
S:Paul O'Shaughnessy
Z:Juergen.Gier@post.rwth-aachen.de
M:C|
L:1/8
K:DDor
A,DDE|FEFG (3AcA Gc|Addc AddE|FEFG ABcA|GcAG FDEC|\
A,DDE ^FGAB|Add^c de^fg|(3ag^f ge fdAF|1GcAG FDEC:|2GcAG ^FDDg|:\
K:D
fd (3efg faec|Addc Adda|fd (3efg fdAF|G=cAG FDDg|\
fd (3efg faec|Addc defg|(3agf ge fdAF|1G=cAG FDDg:|2G=cAG =FDEC|]
